src/components/Icon/utils/svgsOptimized/arrow-line-up.svg

<?xml version="1.0" encoding="utf-8"?><svg width="24" height="24" xmlns="http://www.w3.org/2000/svg" viewBox="0 0 24 24"><path d="M17.7 7.2H6.3a.3.3 0 0 1-.3-.3v-.6a.3.3 0 0 1 .3-.3h11.4a.3.3 0 0 1 .3.3v.6a.3.3 0 0 1-.3.3Zm-5.29 1.95a.637.637 0 0 0-.4-.15c-.15 0-.29.06-.4.15L8.24 11.9a.63.63 0 0 0-.07.88c.22.26.62.3.88.07l2.34-1.86v6.39c0 .34.28.62.62.62.34 0 .62-.27.62-.62v-6.39l2.34 1.86c.26.22.65.19.88-.07a.63.63 0 0 0-.07-.88l-3.37-2.75Z"/></svg>

<svg width="24" height="24" viewBox="0 0 24 24"  xmlns="http://www.w3.org/2000/svg">
<path d="M17.7 7.2L6.3 7.2C6.13431 7.2 6 7.06569 6 6.9V6.3C6 6.13431 6.13431 6 6.3 6H17.7C17.8657 6 18 6.13431 18 6.3V6.9C18 7.06569 17.8657 7.2 17.7 7.2Z" />
<path d="M12.41 9.15C12.3 9.06 12.16 9 12.01 9C11.86 9 11.72 9.06 11.61 9.15L8.24 11.9C7.98 12.12 7.95 12.52 8.17 12.78C8.39 13.04 8.79 13.08 9.05 12.85L11.39 10.99V17.38C11.39 17.72 11.67 18 12.01 18C12.35 18 12.63 17.73 12.63 17.38V10.99L14.97 12.85C15.23 13.07 15.62 13.04 15.85 12.78C16.07 12.52 16.04 12.12 15.78 11.9L12.41 9.15Z" />
</svg>
